icons/cross.svg

<svg width="24" height="24" viewBox="0 0 24 24" fill="none" xmlns="http://www.w3.org/2000/svg">
<path d="M11.2929 9.87888C11.6834 10.2694 12.3166 10.2694 12.7071 9.87888L16.243 6.34299C16.6335 5.95252 17.2665 5.95252 17.657 6.34299C18.0475 6.73345 18.0475 7.36652 17.657 7.75699L14.1211 11.2929C13.7306 11.6834 13.7306 12.3166 14.1211 12.7071L17.657 16.243C18.0475 16.6335 18.0475 17.2665 17.657 17.657C17.2665 18.0475 16.6335 18.0475 16.243 17.657L12.7071 14.1211C12.3166 13.7306 11.6834 13.7306 11.2929 14.1211L7.75699 17.657C7.36652 18.0475 6.73345 18.0475 6.34299 17.657C5.95252 17.2665 5.95252 16.6335 6.34299 16.243L9.87888 12.7071C10.2694 12.3166 10.2694 11.6834 9.87888 11.2929L6.34299 7.75699C5.95252 7.36652 5.95252 6.73345 6.34299 6.34299C6.73345 5.95252 7.36652 5.95252 7.75699 6.34299L11.2929 9.87888Z" fill="currentColor"/>
</svg>

<svg viewBox="0 0 24 24" fill="none" xmlns="http://www.w3.org/2000/svg">
  <path d="M11.293 9.879a1 1 0 0 0 1.414 0l3.536-3.536a1 1 0 1 1 1.414 1.414l-3.536 3.536a1 1 0 0 0 0 1.414l3.536 3.536a1 1 0 1 1-1.414 1.414l-3.536-3.536a1 1 0 0 0-1.414 0l-3.536 3.536a1 1 0 1 1-1.414-1.414l3.536-3.536a1 1 0 0 0 0-1.414L6.343 7.757a1 1 0 1 1 1.414-1.414l3.536 3.536Z" fill="currentColor"/>
</svg>
